X: 6
T: Lad O'Beirne's
R: reel
M: 4/4
L: 1/8
K: Gmaj
|:DG~G2 DGBG|AcBG AGEG |DG~G2 DG (3Bcd|egfg edge|
dB~B2 GBAc|cE~E2 GEDB,|DEGA B3c|1 dBAc BGGE:|2 dBAc BGG2|
|:d3c d2 (3Bcd|edgd edge|dB~B2 GBAB|cE~E2 GED2|
Bddc d2ef|~g2fa gedB|DEGA B2eB|dBAc BGG2:|


Tune 406	Setting 13257

